!! Stephen C. Foster, "Old Folks at Home"
!! from 'Stephen Foster Song Book' Dover Publications (New York) pp. 101-103
!! NOTE:  Leading and trailing bars of rest have been omitted.
**kern
*M4/4
*MM88
*D:
=1
2f#
8e
8d
8f#
8e
=2
4d
4dd
8b
4.dd
=3
2a
4.f#
8d
=4
2.e
4r
=5
2f#
8e
8d
8f#
8e
=6
4d
4dd
8b
4.dd
=7
4a
8.f#
16d
4e
4e
=8
2.d
4r
=9
2f#
8e
8d
8f#
8e
=10
4d
4dd
4b
4dd
=11
2a
4f#
4d
=12
2.e
4r
=13
2f#
8e
8d
8f#
8e
=14
4d
4dd
4b
4dd
=15
4a
8.f#
16d
4e
8.e
16e
=16
2.d
4r
!! Chorus:
=17
4.cc#
8dd
4ee
4a
=18
4.a
8b
4a
4dd
=19
4dd
4b
4g
4b
=20
2.a
4r
=21
2f#
8e
8d
8f#
8e
=22
4d
4dd
4b
4dd;
=23
4a
8.f#
16d
4e
8.e
16e
=24
2.d
4r
=25
4.cc#
8dd
4ee
4a
=26
4.a
8b
4a
4dd
=27
4dd
4b
4g
4b
=28
2.a
4r
=29
2f#
8e
8d
8f#
8e
=30
4d
4dd
4b
4dd;
=31
4a
8.f#
16d
4e
8.e
16e
=32
2.d
4r
==
*-
